16x16/apps/keduca.svg

<svg height="16" width="16" xmlns="http://www.w3.org/2000/svg"><path d="m8 0a8 8 0 0 0 -8 8 8 8 0 0 0 8 8 8 8 0 0 0 1-.072v-15.858a8 8 0 0 0 -1-.07z" fill="#4ac73e"/><path d="m8 0v16a8 8 0 0 0 8-8 8 8 0 0 0 -8-8z" fill="#ff5757"/><path d="m9 15h-2v-2h2zm2-8-1 1c-.72.714-1 1.534-1 3h-2v-1c0-1 .28-1.76 1-2.473l1.34-1.347c.37-.353.66-.618.66-1.18 0-1-1-2-2-2s-2 0-2 2h-2c0-3 1-4 4-4s4 2 4 4c0 1-.43 1.443-1 2z" fill="#f4f4f7"/></svg>

<svg xmlns="http://www.w3.org/2000/svg" height="16" width="16"><path style="fill:#4ac73e" d="M8 0a8 8 0 0 0-8 8 8 8 0 0 0 8 8 8 8 0 0 0 1-.072V.07A8 8 0 0 0 8 0z"/><path style="fill:#ff5757" d="M8 0v16a8 8 0 0 0 8-8 8 8 0 0 0-8-8z"/><path style="fill:#f4f4f7" d="M9 15H7v-2h2zm2-8-1 1c-.72.714-1 1.534-1 3H7v-1c0-1 .28-1.76 1-2.473L9.34 6.18C9.71 5.827 10 5.562 10 5c0-1-1-2-2-2S6 3 6 5H4c0-3 1-4 4-4s4 2 4 4c0 1-.43 1.443-1 2z"/></svg>
